assets/sprites/motherfucker.svg

<svg height="120" viewBox="0 0 120 120" width="120" xmlns="http://www.w3.org/2000/svg"><g stroke-linecap="round" stroke-linejoin="round" stroke-width="4"><g fill="#f55" stroke="#800000"><path d="m72 80h28v8h-28z"/><path d="m72 32h28v8h-28z"/><path d="m28 68-24 24 24 24 24-24h24l16-16v-32l-16-16h-24l-24-24-24 24 24 24z"/></g><path d="m52 52h64v16h-64z" fill="#1a1a1a" stroke="#000"/></g></svg>

<?xml version="1.0" encoding="UTF-8" standalone="no"?>
<!-- Created with Inkscape (http://www.inkscape.org/) -->

<svg
   width="120"
   height="120"
   viewBox="0 0 120 120"
   version="1.1"
   id="svg5"
   inkscape:version="1.2.2 (b0a8486541, 2022-12-01)"
   sodipodi:docname="motherfucker.svg"
   xmlns:inkscape="http://www.inkscape.org/namespaces/inkscape"
   xmlns:sodipodi="http://sodipodi.sourceforge.net/DTD/sodipodi-0.dtd"
   xmlns="http://www.w3.org/2000/svg"
   xmlns:svg="http://www.w3.org/2000/svg">
  <sodipodi:namedview
     id="namedview7"
     pagecolor="#505050"
     bordercolor="#ffffff"
     borderopacity="1"
     inkscape:showpageshadow="0"
     inkscape:pageopacity="0"
     inkscape:pagecheckerboard="1"
     inkscape:deskcolor="#505050"
     inkscape:document-units="px"
     showgrid="true"
     inkscape:zoom="0.972"
     inkscape:cx="-87.44856"
     inkscape:cy="-65.329218"
     inkscape:window-width="1920"
     inkscape:window-height="1042"
     inkscape:window-x="0"
     inkscape:window-y="0"
     inkscape:window-maximized="1"
     inkscape:current-layer="layer1">
    <inkscape:grid
       type="xygrid"
       id="grid132"
       spacingx="4"
       spacingy="4"
       empspacing="6" />
  </sodipodi:namedview>
  <defs
     id="defs2" />
  <g
     inkscape:label="Layer 1"
     inkscape:groupmode="layer"
     id="layer1">
    <rect
       style="fill:#ff5555;stroke:#800000;stroke-width:4;stroke-linecap:round;stroke-linejoin:round;stroke-dasharray:none;stop-color:#000000"
       id="rect1444"
       width="28"
       height="8"
       x="72"
       y="80" />
    <rect
       style="fill:#ff5555;stroke:#800000;stroke-width:4;stroke-linecap:round;stroke-linejoin:round;stroke-dasharray:none;stop-color:#000000"
       id="rect1444-3"
       width="28"
       height="8"
       x="72"
       y="32" />
    <path
       style="fill:#ff5555;stroke:#800000;stroke-width:4;stroke-linecap:round;stroke-linejoin:round;stroke-dasharray:none;stop-color:#000000"
       d="M 28,68 4,92 28,116 52,92 H 76 L 92,76 V 44 L 76,28 H 52 L 28,4 4,28 28,52 Z"
       id="path1442" />
    <rect
       style="fill:#1a1a1a;stroke:#000000;stroke-width:4;stroke-linecap:round;stroke-linejoin:round;stroke-dasharray:none;stop-color:#000000"
       id="rect1004"
       width="64"
       height="16"
       x="52"
       y="52" />
  </g>
</svg>
